X: 1
T: Carlisle Reel, The
M: 2/4
L: 1/8
R: polka
K: Dmaj
|:d2 cd|Bd cd|Ad ge|fa/f/ ec|
d2 cd|Bd cd|A>B AF|D2 D2:|
|:A>F AF|B>G BB|Bd cd|eE EF/G/|
A>F AA|B>G BB|Ad c/d/e/c/|d2 d2:|
